X:1
T:Adoramus te, Christe 3v II
T:Orlando di Lasso
T:Source : Magnum opus musicum(1604)---Paris---First print A.Le Roy et R.Ballard---1586. Editor : André Vierendeels (12/04/15).
T:Notes : Original clefs : G2, C1, C1 Editorial accidentals above the staff Original note values have been halved Square bracket indicates ligature Music collected by Ferdinando and Rodolpho di Lasso
T:Adoramus te, Christe 3v II
C:Orlando di Lasso
%%score [ 1 2 3 ]
L:1/8
Q:1/4=80
M:2/2
K:F
V:1 treble nm="Superius 1" snm="S 1"
V:2 treble nm="Superius 2" snm="S 2"
V:3 treble nm="Altus" snm="A"
V:1
 z8 | z4 c4- | c2 d2 e4 | f2 f2 e3 d/c/ | d4 c2 c2 | f2 f2 e2 f2 | c2 dc de f2- | fe/d/ e2 f4 | %8
w: |A-|* do- ra-|mus te, Chri- * *|* ste et|be- ne- di- ci-|mus ti- * * * *|* * * * bi,|
 F4 F2 F2 | f6 f2 | f2 f2 e4 | d4 d4 | _e2 d2 G2 g2- | gf/e/ f2 g4 | G6 G2 | d4 g4- | %16
w: qui- a per|san- ctam|cru- cem tu-|am re-|de- mi- sti mun-|* * * * dum,|Do- mi-|ne, mi-|
 g2 _e2 d3 c/B/ | cB AG AB c2- | c2 d2 c4 | !fermata!d8 |] %20
w: * se- re- * *||* re no-|bis.|
V:2
 z8 | F6 G2 | A4 G2 A2- | A2 d3 c c2- | cB/A/ B2 c2 F2 | A3 A A3 A | A2 GA BA/G/ A2- | %7
w: |A- do-|ra- mus te,|_ Chri- * *|* * * * ste et|be- ne- di- ci-|mus ti- * * * * *|
 AG/F/ G2 F4 | A4 c2 c2 | B2 A2 d2 d2 | D4 A4 | B4 A2 B2- | B2 B2 B3 A/G/ | A4 G4 | B6 B2 | %15
w: * * * * bi,|qui- a per|san- ctam cru- cem|tu- am|re- de- mi-|* sti mun- * *|* dum,|Do- mi-|
 BA GF _E2 _e2 | _e2 c3 B BA/G/ | AB c2 cB AG | A2 B3 A/G/ A2 | !fermata!B8 |] %20
w: ne, _ _ _ _ mi-|se- re- * * * *|* * * re _ _ _|_ no- * * *|bis,|
V:3
 F6 G2 | A6 E2 | F4 C4 | D4 A4 | z4 A4 | D2 D2 ^C2 D2 | F2 BA GF/E/ D/E/F | C4 z2 D2- | D2 D2 A4 | %9
w: A- do-|ra- mus|te Chri-|* ste|et|be- ne- di- ci-|mis ti- * * * * * * *|bi, qui-|* a per|
 d2 c2 B4 | A2 d3 c/B/ c2 | d2 G2 ^F2 G2- | G2 G2 _E4 | D4 z2 _E2- | E2 _E2 E4 | z2 B4 c2 | C4 G4 | %17
w: san- ctam cru-|cem tu- * * *|am re- de- mi-|* sti mun-|dum, Do-|* mi- ne,|mi- se-|re- re|
 F8- | F8 | !fermata!B,8 |] %20
w: no-||bis.|

